X:169
M:2/4
L:1/8
K:G
|: d2f2 | a3c | cBgB | c2 Ac | defg | cBec | BAGF | G2 G,2 :|

